X:1
T:Deck the halls - Wood
T:James Gibb editions
%%score [ 1 2 3 4 ]
L:1/8
Q:1/4=160
M:4/4
K:Eb
V:1 treble nm="Soprano" snm="S"
V:2 treble nm="Alto" snm="A"
V:3 treble-8 nm="Tenor" snm="T"
V:4 bass nm="Bass" snm="B"
V:1
"^Deck the halls""^Thomas Oliphant\n(1799-1873)""^Charles Wood\n (1866-1926)" B3 A G2 F2 | %1
w: ~Deck the halls with|
w: See the bla- zing|
w: Fast a- way the|
 E2 F2 G2 E2 | FGAF G3 F | E2 D2 E4 | B3 A G2 F2 |[M:4/4] E2 F2 G2 E2 | FGAF G3 F | E2 D2 E4 | %8
w: boughs of hol- ly,|||'Tis the sea- son|to be jol- ly,|||
w: Yule be- fore us,|Fa la la la la, fa|la la la.|Strike the harp and|join the cho- rus,|Fa la la la la, fa|la la la.|
w: old year pas- ses,|||Hail the new, ye|lads and las- ses,|||
 F3 G A2 F2 | G3 A B2 F2 | G=A B2 cd e2 | d2 c2 B4 | B3 A G2 F2 | E2 F2 G2 E2 | cccc B3 A | %15
w: Don we now our|gay ap- pa- rel,|||Troll the an- cient|Yule- tide ca- rol,||
w: Fol- low me in|mer- ry mea- sure,|Fa la la, fa la la|la la la,|While I tell of|Yule- tide trea- sure,|Fa la la la la, fa|
w: Sing we joy- ous|all to- ge- ther,|||Heed- less of the|wind and wea- ther,||
 G2 F2 E4 |] %16
w: |
w: la la la.|
w: |
V:2
 G3 F E2 D2 | C2 D2 E2 B,2 | DEFD E3 D | B,2 A,2 B,4 | G3 F E2 D2 |[M:4/4] C2 D2 E2 B,2 | %6
w: ~Deck the halls with|boughs of hol- ly,|||'Tis the sea- son|to be jol- ly,|
w: See the bla- zing|Yule be- fore us,|Fa la la la la, fa|la la la.|Strike the harp and|join the cho- rus,|
w: Fast a- way the|old year pas- ses,|||Hail the new, ye|lads and las- ses,|
 DEFD E3 D | B,2 A,2 B,4 | D3 E F2 D2 | E3 E E2 D2 | EE F2 GF E2 | F2 E2 D4 | G3 F E2 D2 | %13
w: ||Don we now our|gay ap- pa- rel,|||Troll the an- cient|
w: Fa la la la la, fa|la la la.|Fol- low me in|mer- ry mea- sure,|Fa la la, fa la la|la la la,|While I tell of|
w: ||Sing we joy- ous|all to- ge- ther,|||Heed- less of the|
 C2 D2 E2 B,2 | EEEE E3 F | E2 D2 E4 |] %16
w: Yule- tide ca- rol,|||
w: Yule- tide trea- sure,|Fa la la la la, fa|la la la.|
w: wind and wea- ther,|||
V:3
 B3 B B2 A2 | G2 A2 B2 G2 | BBBB B3 A | G2 F2 G4 | B3 B B2 A2 |[M:4/4][K:treble-8] G2 A2 B2 G2 | %6
w: ~Deck the halls with|boughs of hol- ly,|||'Tis the sea- son|to be jol- ly,|
w: See the bla- zing|Yule be- fore us,|Fa la la la la, fa|la la la.|Strike the harp and|join the cho- rus,|
w: Fast a- way the|old year pas- ses,|||Hail the new, ye|lads and las- ses,|
 BBBB B3 A | G2 F2 G4 | A3 A B2 A2 | B3 B G2 B2 | BB B2 BB c2 | B2 =A2 F4 | B3 B B2 A2 | %13
w: ||Don we now our|gay ap- pa- rel,|||Troll the an- cient|
w: Fa la la la la, fa|la la la.|Fol- low me in|mer- ry mea- sure,|Fa la la, fa la la|la la la,|While I tell of|
w: ||Sing we joy- ous|all to- ge- ther,|||Heed- less of the|
 G2 B2 B2 G2 | AAAA B3 c | B2 A2 G4 |] %16
w: Yule- tide ca- rol,|||
w: Yule- tide trea- sure,|Fa la la la la, fa|la la la.|
w: wind and wea- ther,|||
V:4
 E,3 D, E,2 B,,2 | C,2 B,,2 E,2 E,2 | B,,B,,D,D, E,3 A,, | B,,2 B,,2 E,4 | E,3 D, E,2 B,,2 | %5
w: ~Deck the halls with|boughs of hol- ly,|||'Tis the sea- son|
w: See the bla- zing|Yule be- fore us,|Fa la la la la, fa|la la la.|Strike the harp and|
w: Fast a- way the|old year pas- ses,|||Hail the new, ye|
[M:4/4] C,2 B,,2 E,2 E,2 | B,,B,,D,D, E,3 A,, | B,,2 B,,2 E,4 | B,,3 B,, D,2 B,,2 | %9
w: to be jol- ly,|||Don we now our|
w: join the cho- rus,|Fa la la la la, fa|la la la.|Fol- low me in|
w: lads and las- ses,|||Sing we joy- ous|
 E,3 F, E,2 D,2 | E,E, D,2 E,D, C,2 | F,2 F,2 B,,4 | E,3 D, E,2 B,,2 | C,2 B,,2 E,2 E,2 | %14
w: gay ap- pa- rel,|||Troll the an- cient|Yule- tide ca- rol,|
w: mer- ry mea- sure,|Fa la la, fa la la|la la la,|While I tell of|Yule- tide trea- sure,|
w: all to- ge- ther,|||Heed- less of the|wind and wea- ther,|
 A,,A,,A,,A,, G,,3 A,, | B,,2 B,,2 E,4 |] %16
w: ||
w: Fa la la la la, fa|la la la.|
w: ||

